resources/svg/character.svg

<svg xmlns="http://www.w3.org/2000/svg" viewBox="0 0 14 14" fill="currentColor"><path d="M8,14 L8,11.8915468 C9.98437578,11.3877353 11.5011644,9.41596443 11.5011644,7.00958476 C11.5011644,4.21258196 9.4519728,2.0027385 7.00116444,2.0027385 C4.55035607,2.0027385 2.50116444,4.21258196 2.50116444,7.00958476 C2.50116444,9.41502296 4.01676647,11.3861924 6,11.8909548 L6,14 L1,14 C0.44771525,14 0,13.5516717 0,12.9986307 C0,12.4455898 0.44771525,11.9972615 1,11.9972615 L2.43403906,11.9972615 C1.24069966,10.7263929 0.501164437,8.96112338 0.501164437,7.00958476 C0.501164437,3.13829799 3.41131356,0 7.00116444,0 C10.5910153,0 13.5011644,3.13829799 13.5011644,7.00958476 C13.5011644,8.96112338 12.7616292,10.7263929 11.5682898,11.9972615 L13,11.9972615 C13.5522847,11.9972615 14,12.4455898 14,12.9986307 C14,13.5516717 13.5522847,14 13,14 L8,14 L8,14 Z"/></svg>

<svg xmlns="http://www.w3.org/2000/svg" fill="currentColor" viewBox="0 0 14 14"><path d="M8 14v-2.108c1.984-.504 3.501-2.476 3.501-4.882 0-2.797-2.049-5.007-4.5-5.007-2.45 0-4.5 2.21-4.5 5.007 0 2.405 1.516 4.376 3.499 4.881V14H1a1 1 0 0 1 0-2.003h1.434C1.241 10.727.501 8.961.501 7.01c0-3.872 2.91-7.01 6.5-7.01s6.5 3.138 6.5 7.01c0 1.951-.74 3.716-1.933 4.987H13A1 1 0 0 1 13 14H8Z"/></svg>
